X:1
T:Erstanden ist der heilig Christ
T:Erstanden ist der heilig Christ
T:Melchior Vulpius, um 1570-1615
C:Melchior Vulpius ca. 1570 - 1615
%%score [ ( 1 2 ) ( 3 4 ) ( 5 6 ) ( 7 8 ) ]
L:1/8
Q:1/4=120
M:3/4
K:G
V:1 treble nm="Sopran 1\nAlt 1" snm="S 1\nA 1"
V:2 treble 
V:3 bass nm="Tenor 1\nBass 1" snm="T 1\nB 1"
V:4 bass 
V:5 treble nm="Sopran 2\nAlt 2" snm="S 2\nA 2"
V:6 treble 
V:7 bass nm="Tenor 2\nBass 2" snm="T 2\nB 2"
V:8 bass 
V:1
!f!!f! B2 B2 A2 | (^G3 A) B2 | (^c2 d2) d2 | d4 z2 | z6 | z6 |!f!!f! d3 B A2 | B4 z2 | %8
w: 1.  Er- stan- den|ist _ der|hei- * lig|Christ,|||||
w: 2.  Er ist er-|stan- * den|aus   dem|Grab,|||Hal- le- lu-|ja!|
w: 3.  Des' soll'n wir|al- * le|fröh- * lich|sein,|||||
!mp!!mp! d3 B A2 | B4 z2 |!f!!f! d2 d2 ^c2 | (d3 c/B/) A2 | (B2 c2) A2 | B4 z2 | z6 | z4 d2 | %16
w: ||Der al- ler|Welt _   ein|Trös- * ter|ist!|||
w: Hal- le- lu-|ja!|heut an dem|heil'- * * gen|Os- * ter-|tag!||Hal-|
w: ||und Christ soll|un- * * ser|Trös- * ter|sein!|||
 (d3 c Bd | c4) A2 | B4 z2 | z6 |!f!!f! d3 B A2 | B4 z2 |!p!!p! d3 B A2 | B4 z2 | z6 | %25
w: |||||||||
w: le- * * *|* lu-|ja!||Hal- le- lu-|ja!|Hal- le- lu-|ja!||
w: |||||||||
!ff!"^rit."[Q:1/4=120]!ff! B3[Q:1/4=119]"^.4" B[Q:1/4=119] A2 | %26
w: |
w: Hal- le- lu-|
w: |
[Q:1/4=117]"^.8" B2[Q:1/4=116]"^.3" B4 |[Q:1/4=112]"^.2" d2[Q:1/4=109]"^.6" d4 | %28
w: ||
w: ja, Hal-|le- lu-|
w: ||
[Q:1/4=103]"^.4" d2[Q:1/4=99]"^.8" d4 |[Q:1/4=91]"^.7" B2[Q:1/4=87]"^.2" A4 |[Q:1/4=77]"^.2" B6 |] %31
w: |||
w: ja, Hal-|le- lu-|ja!|
w: |||
V:2
 G2 G2 F2 | E4 E2- | E2 F2 F2 | G4 x2 | x6 | x6 | G3 G E2 | G4 x2 | G3 G F2 | G4 x2 | G2 G2 E2 | %11
 FEFG A2 | G4 F2 | G4 x2 | x6 | x4 D2 | (DCB,A, G,2- | G,2 G2) F2 | G4 x2 | x6 | G3 G F2 | G4 x2 | %22
 G3 G F2 | G4 x2 | x6 | G3 G F2 | G2 G4 | G2 F4 | G2 G4 | G2 F4 | G6 |] %31
V:3
!f!!f!!f! D2 D2 D2 | B,4 B,2 | A,4 A,2 | B,4 z2 | z6 | z6 |!f!!f! D3 D ^C2 | D4 z2 | %8
!mp!!mp! B,3 D D2 | D4 z2 |!f!!f! B,2 B,2 A,2 | A,4 D2 | (D2 E2) D2 | D4 z2 | z6 | z4 D2 | %16
 (B,3 C DB, | E4) D2 | D4 z2 | z6 |!f!!f! B,3 D D2 | D4 z2 |!p!!p! B,3 D ^C2 | D4 z2 | z6 | %25
!ff!!ff! D,3 D, D,2 | D,2 D,4 | D2 D4 | B,2 D4 | D,2 D,4 | D,6 |] %31
V:4
 G,2 G,2 D,2 | (E,3 F,) ^G,2 | (A,2 D,2) D,2 | G,4 x2 | x6 | x6 | G,3 G, A,2 | G,4 x2 | %8
 G,,3 G,, D,2 | G,,4 x2 | G,2 G,2 A,2 | (D,3 E,) F,2 | (G,2 C,2) D,2 | G,,4 x2 | x6 | x4 D,2 | %16
 (G,,3 A,, B,,G,, | C,4) D,2 | G,4 x2 | x6 | G,,3 G,, D,2 | G,,4 x2 | G,3 G, A,2 | G,4 x2 | x6 | %25
 D,3 D, D,2 | D,2 D,4 | D,2 D,4 | D,2 D,4 | D,2 D,4 | D,6 |] %31
V:5
 z6 | z6 | z6 |!f!!f! B2 B2 A2 | (^G3 A) B2 | (^c2 d2) d2 | d4 z2 |!mf!!mf! d3 B A2 | B4 z2 | %9
w: |||1.  Er- stan- den|ist _ der|hei- * lig|Christ,|||
w: |||2.  Er ist er-|stan- * den|aus   dem|Grab,|Hal- le- lu-|ja!|
w: |||3.  Des' soll'n wir|al- * le|fröh- * lich|sein,|||
!p!!p! d3 B A2 | B4 z2 | z6 | z6 |!f!!f! d2 d2 ^c2 | (d3 c/B/) A2 | (B2 c2) A2 | B4 z2 | z4 d2 | %18
w: ||||Der al- ler|Welt _ _ ein|Trös- * ter|ist!||
w: Hal- le- lu-|ja!|||heut an dem|heil'- * * gen|Os- * ter-|tag!|Hal-|
w: ||||und Christ soll|un- * * ser|Trös- * ter|sein!||
 (d3 c Bd | c4) A2 | B4 z2 |!mf!!mf! d3 B A2 | B4 z2 |!pp!!pp! d3 B A2 | B4 z2 |!ff!!ff! d3 d d2 | %26
w: ||||||||
w: le- * * *|* lu-|ja!|Hal- le- lu-|ja!|Hal- le- lu-|ja!|Hal- le- lu-|
w: ||||||||
 d2 d4 | B2 A4 | B2 B4 | d2 d4 | d6 |] %31
w: |||||
w: ja, Hal-|le- lu-|ja, Hal-|le- lu-|ja!|
w: |||||
V:6
 x6 | x6 | x6 | G2 G2 F2 | E4 E2- | E2 F2 F2 | G4 x2 | G3 G E2 | G4 x2 | G3 G F2 | G4 x2 | x6 | %12
 x6 | G2 G2 E2 | FEFG A2 | G4 F2 | G4 x2 | x4 D2 | (DCB,A, G,2- | G,2 G2) F2 | G4 x2 | G3 G F2 | %22
 G4 x2 | G3 G F2 | G4 x2 | D3 D D2 | B,2 B,4 | B,2 D4 | D2 B,4 | B,2 D4 | D6 |] %31
V:7
 z6 | z6 | z6 |!f!!f! D2 D2 D2 | B,4 B,2 | A,4 A,2 | B,4 z2 |!mf!!mf! D3 D ^C2 | D4 z2 | %9
!p!!p! B,3 D D2 | D4 z2 | z6 | z6 |!f!!f! B,2 B,2 A,2 | A,4 D2 | (D2 E2) D2 | D4 z2 | z4 D2 | %18
 (B,3 C DB, | E4) D2 | D4 z2 |!mf!!mf! B,3 D D2 | D4 z2 |!pp!!pp! B,3 D ^C2 | D4 z2 | %25
!ff!!ff! D3 D D2 | B,2 B,4 | B,2 D4 | D2 B,4 | B,2 D4 | D6 |] %31
V:8
 x6 | x6 | x6 | G,2 G,2 D,2 | (E,3 F,) ^G,2 | (A,2 D,2) D,2 | G,4 x2 | G,3 G, A,2 | G,4 x2 | %9
 G,,3 G,, D,2 | G,,4 x2 | x6 | x6 | G,2 G,2 A,2 | (D,3 E,) F,2 | (G,2 C,2) D,2 | G,,4 x2 | x4 D,2 | %18
 (G,,3 A,, B,,G,, | C,4) D,2 | G,4 x2 | G,,3 G,, D,2 | G,,4 x2 | G,3 G, A,2 | G,4 x2 | %25
 G,,3 G,, A,,2 | G,,2 G,,4 | G,,2 D,4 | G,,2 G,,4 | G,,2 D,4 | G,,6 |] %31

